img/icons/user/Download_Package.svg

<svg width="19" height="18" viewBox="0 0 19 18" fill="none" xmlns="http://www.w3.org/2000/svg">
<path d="M15.5 6V12.6C15.5 13.4401 15.5002 13.8601 15.3367 14.181C15.1929 14.4632 14.9631 14.6927 14.6808 14.8365C14.36 15 13.9402 15 13.1001 15H5.90015C5.06007 15 4.63972 15 4.31885 14.8365C4.0366 14.6927 3.8073 14.4632 3.66349 14.181C3.5 13.8601 3.5 13.4401 3.5 12.6V6M15.5 6H3.5M15.5 6L14.4768 4.20927C14.2251 3.76885 14.0992 3.54862 13.9224 3.38841C13.7659 3.24666 13.5815 3.13954 13.3808 3.07404C13.154 3 12.9001 3 12.3928 3H6.60693C6.09967 3 5.84646 3 5.61963 3.07404C5.41894 3.13954 5.23396 3.24666 5.07752 3.38841C4.9007 3.54862 4.77495 3.76885 4.52328 4.20927L3.5 6" stroke="white" stroke-width="1.5" stroke-linecap="round" stroke-linejoin="round"/>
<path d="M7.81152 10.9751H10.8115" stroke="white" stroke-width="1.5" stroke-linecap="round"/>
</svg>

<svg width="19" height="18" fill="none" xmlns="http://www.w3.org/2000/svg"><path d="M15.5 6v6.6c0 .84 0 1.26-.163 1.581a1.5 1.5 0 0 1-.656.655C14.36 15 13.94 15 13.1 15H5.9c-.84 0-1.261 0-1.582-.164a1.5 1.5 0 0 1-.656-.655c-.163-.32-.163-.74-.163-1.581V6m12 0h-12m12 0-1.023-1.79c-.252-.441-.378-.661-.555-.822a1.5 1.5 0 0 0-.541-.314C13.154 3 12.9 3 12.393 3H6.607c-.507 0-.76 0-.987.074a1.512 1.512 0 0 0-.542.314c-.177.16-.303.38-.555.821L3.5 6" stroke="#fff" stroke-width="1.5" stroke-linecap="round" stroke-linejoin="round"/><path d="M7.812 10.975h3" stroke="#fff" stroke-width="1.5" stroke-linecap="round"/></svg>
